Badges/Misc/trash-can-deprecated.svg

<svg xmlns="http://www.w3.org/2000/svg" width="97" height="32" fill="none">
  <g filter="url(#a)">
    <rect width="97" height="32" fill="#ff361f" rx="4"/>
    <path fill="#fff" d="M14.3906 9h3.2188c.2291 0 .4349.07031.6172.21094.1823.14062.2994.32291.3515.54687l.3516 1.39839c.5521.0573 1.0833.1329 1.5937.2266.4375.0833.8386.1719 1.2032.2656.1198.0313.2265.0625.3203.0938l.1172.0312s-.0079.0209-.0235.0625L22 12.25l.1641-.4766c.1302.0469.2239.1328.2812.2578.0625.125.0703.2527.0235.3829-.0417.1302-.125.2265-.25.289-.125.0573-.2527.0651-.3829.0235l-.0859-.0313c-.0833-.026-.1771-.0521-.2812-.0781l-.0157-.0078-.6797 9.0781q-.0234.32025-.2265.5625c-.1354.1667-.3099.2734-.5235.3203-.4739.1094-.9895.2005-1.5468.2735C17.6589 22.9479 16.8333 23 16 23s-1.6589-.0521-2.4766-.1562c-.5573-.073-1.0729-.1641-1.5468-.2735-.2136-.0469-.3881-.1536-.5235-.3203q-.2031-.24225-.2265-.5625l-.6797-9.0781-.0157.0078c-.1041.026-.1979.0521-.2812.0781l-.0859.0313c-.1302.0416-.25785.0338-.38285-.0235-.125-.0625-.21094-.1588-.25781-.289-.04167-.1302-.03386-.2579.02344-.3829.0625-.125.15885-.2109.28906-.2578L10 12.25l-.16406-.4766.11718-.0312c.09898-.0313.20578-.0625.32028-.0938.3646-.0937.7657-.1823 1.2032-.2656.5104-.0937 1.0416-.1693 1.5937-.2266l.3516-1.39839c.0521-.22396.1692-.40625.3515-.54687.1823-.14063.3881-.21094.6172-.21094M16 11c.6354 0 1.2604.0208 1.875.0625L17.6094 10h-3.2188l-.2656 1.0625C14.7396 11.0208 15.3646 11 16 11m2.25 4.0312c.0104-.1354-.0312-.2552-.125-.3593-.0938-.1042-.2083-.1615-.3438-.1719-.1354-.0104-.2552.0312-.3593.125-.1042.0938-.1615.2083-.1719.3438l-.25 4c-.0104.1354.0312.2552.125.3593.0938.1042.2083.1615.3438.1719.1354.0104.2552-.0312.3593-.125.1042-.0938.1615-.2083.1719-.3438zm-3.5-.0624c-.0104-.1355-.0677-.25-.1719-.3438-.1041-.0938-.2239-.1354-.3593-.125-.1355.0104-.25.0677-.3438.1719-.0938.1041-.1354.2239-.125.3593l.25 4c.0104.1355.0677.25.1719.3438.1041.0938.2239.1354.3593.125.1355-.0104.25-.0677.3438-.1719.0938-.1041.1354-.2239.125-.3593zM31.355 12.3c2.2 0 3.729 1.166 3.729 3.85S33.555 20 31.355 20h-2.541v-7.7zm-1.045 6.248h1.111c1.243 0 2.123-.748 2.123-2.398s-.88-2.398-2.123-2.398H30.31zm8.4891 1.562c-1.771 0-2.926-1.199-2.926-2.981s1.155-3.003 2.805-3.003c1.782 0 2.673 1.221 2.673 2.926v.495h-4.059c.121.902.693 1.287 1.507 1.287.594 0 1.045-.187 1.496-.561l.847 1.012c-.616.572-1.496.825-2.343.825m-.121-4.796c-.704 0-1.166.363-1.342 1.089h2.618c-.088-.693-.55-1.089-1.276-1.089m5.1844 6.776h-1.408v-7.854h1.408v.814l.176.066c.253-.517.759-.99 1.617-.99 1.364 0 2.42.979 2.42 2.871s-1.056 3.113-2.75 3.113c-.572 0-1.056-.154-1.463-.352zm1.353-3.278c.836 0 1.43-.66 1.43-1.804 0-1.1-.594-1.584-1.375-1.584-.616 0-1.111.297-1.408.77v2.211c.286.209.792.407 1.353.407M50.6301 20h-1.408v-5.764h1.408v.814l.176.066c.319-.627.847-.99 1.529-.99.165 0 .341.022.495.055V15.6c-.22-.077-.495-.132-.847-.132-.605 0-1.111.374-1.353.88zm5.4639.11c-1.771 0-2.926-1.199-2.926-2.981s1.155-3.003 2.805-3.003c1.782 0 2.673 1.221 2.673 2.926v.495h-4.059c.121.902.693 1.287 1.507 1.287.594 0 1.045-.187 1.496-.561l.847 1.012c-.616.572-1.496.825-2.343.825m-.121-4.796c-.704 0-1.166.363-1.342 1.089h2.618c-.088-.693-.55-1.089-1.276-1.089m6.3504 4.796c-1.738 0-2.882-1.21-2.882-2.992s1.144-2.992 2.882-2.992c.902 0 1.771.363 2.277 1.012l-.946.946c-.319-.385-.792-.66-1.364-.66-.836 0-1.419.616-1.419 1.694s.583 1.694 1.419 1.694c.572 0 1.045-.275 1.364-.66l.946.946c-.506.649-1.375 1.012-2.277 1.012m4.7129 0c-.968 0-1.837-.594-1.837-1.815 0-1.1.792-1.815 2.343-1.815h1.342v-.099c0-.781-.462-1.045-1.067-1.045-.638 0-1.144.275-1.76.737l-.671-1.045c.704-.528 1.518-.902 2.464-.902 1.419 0 2.442.583 2.442 2.211V20h-1.408v-.649l-.176-.066c-.396.539-.913.825-1.672.825m.462-1.21c.616 0 1.1-.341 1.386-.748v-.66h-1.364c-.583 0-.913.242-.913.704 0 .429.363.704.891.704m6.7825-.088c.33 0 .583-.044.88-.121v1.243c-.341.11-.682.176-1.1.176-1.298 0-2.057-.737-2.057-2.145v-2.519h-.946v-1.21h.946V12.74h1.408v1.496h1.628v1.21h-1.628v2.497c0 .583.352.869.869.869m4.2966 1.298c-1.771 0-2.926-1.199-2.926-2.981s1.155-3.003 2.805-3.003c1.782 0 2.673 1.221 2.673 2.926v.495h-4.059c.121.902.693 1.287 1.507 1.287.594 0 1.045-.187 1.496-.561l.847 1.012c-.616.572-1.496.825-2.343.825m-.121-4.796c-.704 0-1.166.363-1.342 1.089h2.618c-.088-.693-.55-1.089-1.276-1.089m5.8774 4.796c-1.342 0-2.409-1.023-2.409-2.992 0-1.936 1.166-2.992 2.827-2.992.517 0 1.045.132 1.386.319V12.19h1.408V20h-1.408v-.814l-.176-.066c-.319.693-.902.99-1.628.99m.407-1.298c.55 0 1.122-.242 1.397-.77V15.71c-.352-.209-.803-.286-1.243-.286-.858 0-1.54.528-1.54 1.694 0 1.056.473 1.694 1.386 1.694"/>
  </g>
  <defs>
    <filter id="a" width="97" height="34" x="0" y="-2" color-interpolation-filters="sRGB" filterUnits="userSpaceOnUse">
      <feFlood flood-opacity="0" result="BackgroundImageFix"/>
      <feBlend in="SourceGraphic" in2="BackgroundImageFix" result="shape"/>
      <feColorMatrix in="SourceAlpha" result="hardAlpha" values="0 0 0 0 0 0 0 0 0 0 0 0 0 0 0 0 0 0 127 0"/>
      <feOffset dy="-2"/>
      <feGaussianBlur stdDeviation="1.65"/>
      <feComposite in2="hardAlpha" k2="-1" k3="1" operator="arithmetic"/>
      <feColorMatrix values="0 0 0 0 1 0 0 0 0 1 0 0 0 0 1 0 0 0 0.11 0"/>
      <feBlend in2="shape" result="effect1_innerShadow_24_186"/>
    </filter>
  </defs>
</svg>

<svg width="97" height="32" viewBox="0 0 97 32" fill="none" xmlns="http://www.w3.org/2000/svg">
<g filter="url(#filter0_i_24_186)">
<rect width="97" height="32" rx="4" fill="#FF361F"/>
<path d="M14.3906 9H17.6094C17.8385 9 18.0443 9.07031 18.2266 9.21094C18.4089 9.35156 18.526 9.53385 18.5781 9.75781L18.9297 11.1562C19.4818 11.2135 20.013 11.2891 20.5234 11.3828C20.9609 11.4661 21.362 11.5547 21.7266 11.6484C21.8464 11.6797 21.9531 11.7109 22.0469 11.7422L22.1641 11.7734C22.1641 11.7734 22.1562 11.7943 22.1406 11.8359L22 12.25L22.1641 11.7734C22.2943 11.8203 22.388 11.9062 22.4453 12.0312C22.5078 12.1562 22.5156 12.2839 22.4688 12.4141C22.4271 12.5443 22.3438 12.6406 22.2188 12.7031C22.0938 12.7604 21.9661 12.7682 21.8359 12.7266L21.75 12.6953C21.6667 12.6693 21.5729 12.6432 21.4688 12.6172L21.4531 12.6094L20.7734 21.6875C20.7578 21.901 20.6823 22.0885 20.5469 22.25C20.4115 22.4167 20.237 22.5234 20.0234 22.5703C19.5495 22.6797 19.0339 22.7708 18.4766 22.8438C17.6589 22.9479 16.8333 23 16 23C15.1667 23 14.3411 22.9479 13.5234 22.8438C12.9661 22.7708 12.4505 22.6797 11.9766 22.5703C11.763 22.5234 11.5885 22.4167 11.4531 22.25C11.3177 22.0885 11.2422 21.901 11.2266 21.6875L10.5469 12.6094L10.5312 12.6172C10.4271 12.6432 10.3333 12.6693 10.25 12.6953L10.1641 12.7266C10.0339 12.7682 9.90625 12.7604 9.78125 12.7031C9.65625 12.6406 9.57031 12.5443 9.52344 12.4141C9.48177 12.2839 9.48958 12.1562 9.54688 12.0312C9.60938 11.9062 9.70573 11.8203 9.83594 11.7734L10 12.25L9.83594 11.7734L9.95312 11.7422C10.0521 11.7109 10.1589 11.6797 10.2734 11.6484C10.638 11.5547 11.0391 11.4661 11.4766 11.3828C11.987 11.2891 12.5182 11.2135 13.0703 11.1562L13.4219 9.75781C13.474 9.53385 13.5911 9.35156 13.7734 9.21094C13.9557 9.07031 14.1615 9 14.3906 9ZM16 11C16.6354 11 17.2604 11.0208 17.875 11.0625L17.6094 10H14.3906L14.125 11.0625C14.7396 11.0208 15.3646 11 16 11ZM18.25 15.0312C18.2604 14.8958 18.2188 14.776 18.125 14.6719C18.0312 14.5677 17.9167 14.5104 17.7812 14.5C17.6458 14.4896 17.526 14.5312 17.4219 14.625C17.3177 14.7188 17.2604 14.8333 17.25 14.9688L17 18.9688C16.9896 19.1042 17.0312 19.224 17.125 19.3281C17.2188 19.4323 17.3333 19.4896 17.4688 19.5C17.6042 19.5104 17.724 19.4688 17.8281 19.375C17.9323 19.2812 17.9896 19.1667 18 19.0312L18.25 15.0312ZM14.75 14.9688C14.7396 14.8333 14.6823 14.7188 14.5781 14.625C14.474 14.5312 14.3542 14.4896 14.2188 14.5C14.0833 14.5104 13.9688 14.5677 13.875 14.6719C13.7812 14.776 13.7396 14.8958 13.75 15.0312L14 19.0312C14.0104 19.1667 14.0677 19.2812 14.1719 19.375C14.276 19.4688 14.3958 19.5104 14.5312 19.5C14.6667 19.4896 14.7812 19.4323 14.875 19.3281C14.9688 19.224 15.0104 19.1042 15 18.9688L14.75 14.9688Z" fill="white"/>
<path d="M31.355 12.3C33.555 12.3 35.084 13.466 35.084 16.15C35.084 18.834 33.555 20 31.355 20H28.814V12.3H31.355ZM30.31 18.548H31.421C32.664 18.548 33.544 17.8 33.544 16.15C33.544 14.5 32.664 13.752 31.421 13.752H30.31V18.548ZM38.7991 20.11C37.0281 20.11 35.8731 18.911 35.8731 17.129C35.8731 15.347 37.0281 14.126 38.6781 14.126C40.4601 14.126 41.3511 15.347 41.3511 17.052V17.547H37.2921C37.4131 18.449 37.9851 18.834 38.7991 18.834C39.3931 18.834 39.8441 18.647 40.2951 18.273L41.1421 19.285C40.5261 19.857 39.6461 20.11 38.7991 20.11ZM38.6781 15.314C37.9741 15.314 37.5121 15.677 37.3361 16.403H39.9541C39.8661 15.71 39.4041 15.314 38.6781 15.314ZM43.8625 22.09H42.4545V14.236H43.8625V15.05L44.0385 15.116C44.2915 14.599 44.7975 14.126 45.6555 14.126C47.0195 14.126 48.0755 15.105 48.0755 16.997C48.0755 18.889 47.0195 20.11 45.3255 20.11C44.7535 20.11 44.2695 19.956 43.8625 19.758V22.09ZM45.2155 18.812C46.0515 18.812 46.6455 18.152 46.6455 17.008C46.6455 15.908 46.0515 15.424 45.2705 15.424C44.6545 15.424 44.1595 15.721 43.8625 16.194V18.405C44.1485 18.614 44.6545 18.812 45.2155 18.812ZM50.6301 20H49.2221V14.236H50.6301V15.05L50.8061 15.116C51.1251 14.489 51.6531 14.126 52.3351 14.126C52.5001 14.126 52.6761 14.148 52.8301 14.181V15.6C52.6101 15.523 52.3351 15.468 51.9831 15.468C51.3781 15.468 50.8721 15.842 50.6301 16.348V20ZM56.094 20.11C54.323 20.11 53.168 18.911 53.168 17.129C53.168 15.347 54.323 14.126 55.973 14.126C57.755 14.126 58.646 15.347 58.646 17.052V17.547H54.587C54.708 18.449 55.28 18.834 56.094 18.834C56.688 18.834 57.139 18.647 57.59 18.273L58.437 19.285C57.821 19.857 56.941 20.11 56.094 20.11ZM55.973 15.314C55.269 15.314 54.807 15.677 54.631 16.403H57.249C57.161 15.71 56.699 15.314 55.973 15.314ZM62.3234 20.11C60.5854 20.11 59.4414 18.9 59.4414 17.118C59.4414 15.336 60.5854 14.126 62.3234 14.126C63.2254 14.126 64.0944 14.489 64.6004 15.138L63.6544 16.084C63.3354 15.699 62.8624 15.424 62.2904 15.424C61.4544 15.424 60.8714 16.04 60.8714 17.118C60.8714 18.196 61.4544 18.812 62.2904 18.812C62.8624 18.812 63.3354 18.537 63.6544 18.152L64.6004 19.098C64.0944 19.747 63.2254 20.11 62.3234 20.11ZM67.0363 20.11C66.0683 20.11 65.1993 19.516 65.1993 18.295C65.1993 17.195 65.9913 16.48 67.5423 16.48H68.8843V16.381C68.8843 15.6 68.4223 15.336 67.8173 15.336C67.1793 15.336 66.6733 15.611 66.0573 16.073L65.3863 15.028C66.0903 14.5 66.9043 14.126 67.8503 14.126C69.2693 14.126 70.2923 14.709 70.2923 16.337V20H68.8843V19.351L68.7083 19.285C68.3123 19.824 67.7953 20.11 67.0363 20.11ZM67.4983 18.9C68.1143 18.9 68.5983 18.559 68.8843 18.152V17.492H67.5203C66.9373 17.492 66.6073 17.734 66.6073 18.196C66.6073 18.625 66.9703 18.9 67.4983 18.9ZM74.2808 18.812C74.6108 18.812 74.8638 18.768 75.1608 18.691V19.934C74.8198 20.044 74.4788 20.11 74.0608 20.11C72.7628 20.11 72.0038 19.373 72.0038 17.965V15.446H71.0578V14.236H72.0038V12.74H73.4118V14.236H75.0398V15.446H73.4118V17.943C73.4118 18.526 73.7638 18.812 74.2808 18.812ZM78.5774 20.11C76.8064 20.11 75.6514 18.911 75.6514 17.129C75.6514 15.347 76.8064 14.126 78.4564 14.126C80.2384 14.126 81.1294 15.347 81.1294 17.052V17.547H77.0704C77.1914 18.449 77.7634 18.834 78.5774 18.834C79.1714 18.834 79.6224 18.647 80.0734 18.273L80.9204 19.285C80.3044 19.857 79.4244 20.11 78.5774 20.11ZM78.4564 15.314C77.7524 15.314 77.2904 15.677 77.1144 16.403H79.7324C79.6444 15.71 79.1824 15.314 78.4564 15.314ZM84.3338 20.11C82.9918 20.11 81.9248 19.087 81.9248 17.118C81.9248 15.182 83.0908 14.126 84.7518 14.126C85.2688 14.126 85.7968 14.258 86.1378 14.445V12.19H87.5458V20H86.1378V19.186L85.9618 19.12C85.6428 19.813 85.0598 20.11 84.3338 20.11ZM84.7408 18.812C85.2908 18.812 85.8628 18.57 86.1378 18.042V15.71C85.7858 15.501 85.3348 15.424 84.8948 15.424C84.0368 15.424 83.3548 15.952 83.3548 17.118C83.3548 18.174 83.8278 18.812 84.7408 18.812Z" fill="white"/>
</g>
<defs>
<filter id="filter0_i_24_186" x="0" y="-2" width="97" height="34" filterUnits="userSpaceOnUse" color-interpolation-filters="sRGB">
<feFlood flood-opacity="0" result="BackgroundImageFix"/>
<feBlend mode="normal" in="SourceGraphic" in2="BackgroundImageFix" result="shape"/>
<feColorMatrix in="SourceAlpha" type="matrix" values="0 0 0 0 0 0 0 0 0 0 0 0 0 0 0 0 0 0 127 0" result="hardAlpha"/>
<feOffset dy="-2"/>
<feGaussianBlur stdDeviation="1.65"/>
<feComposite in2="hardAlpha" operator="arithmetic" k2="-1" k3="1"/>
<feColorMatrix type="matrix" values="0 0 0 0 1 0 0 0 0 1 0 0 0 0 1 0 0 0 0.11 0"/>
<feBlend mode="normal" in2="shape" result="effect1_innerShadow_24_186"/>
</filter>
</defs>
</svg>
